assets/icons/24px/outline/pocket-24px.svg

<svg width="24" height="24" viewBox="0 0 24 24" fill="none" xmlns="http://www.w3.org/2000/svg">
<g clip-path="url(#clip0_821_19365)">
<path d="M3 6.51305C3 5.56891 3 5.09685 3.15619 4.72518C3.35893 4.24271 3.74271 3.85893 4.22518 3.65619C4.59685 3.5 5.06891 3.5 6.01305 3.5H12H17.987C18.9311 3.5 19.4032 3.5 19.7748 3.65619C20.2573 3.85893 20.6411 4.24271 20.8438 4.72518C21 5.09685 21 5.56891 21 6.51305V8.4947C21 8.52578 21 8.54132 21 8.55665C20.995 11.1456 20.3619 13.6947 19.1549 15.9851C19.1478 15.9986 19.1405 16.0124 19.126 16.0398V16.0398C19.0782 16.13 19.0543 16.1752 19.0381 16.2052C16.0143 21.8008 7.98569 21.8008 4.9619 16.2052C4.94567 16.1752 4.92179 16.13 4.87403 16.0398V16.0398C4.85949 16.0124 4.85222 15.9986 4.84507 15.9851C3.63812 13.6947 3.00499 11.1456 3.00003 8.55665C3 8.54132 3 8.52578 3 8.4947L3 6.51305Z" stroke="white" stroke-width="2"/>
<path d="M8 10L10.5858 12.5858C11.2525 13.2525 11.5858 13.5858 12 13.5858C12.4142 13.5858 12.7475 13.2525 13.4142 12.5858L16 10" stroke="white" stroke-width="2" stroke-linecap="round"/>
</g>
<defs>
<clipPath id="clip0_821_19365">
<rect width="24" height="24" fill="white"/>
</clipPath>
</defs>
</svg>

<svg width="24" height="24" fill="none" xmlns="http://www.w3.org/2000/svg"><g clip-path="url(#clip0_821_19365)" stroke="#fff" stroke-width="2"><path d="M3 6.513c0-.944 0-1.416.156-1.788a2 2 0 0 1 1.07-1.069c.37-.156.843-.156 1.787-.156h11.974c.944 0 1.416 0 1.788.156a2 2 0 0 1 1.069 1.07c.156.37.156.843.156 1.787v2.044a16 16 0 0 1-1.874 7.483l-.088.165c-3.024 5.596-11.052 5.596-14.076 0l-.088-.165-.029-.055A16 16 0 0 1 3 8.557V6.513z"/><path d="M8 10l2.586 2.586c.666.666 1 1 1.414 1 .414 0 .748-.334 1.414-1L16 10" stroke-linecap="round"/></g><defs><clipPath id="clip0_821_19365"><path fill="#fff" d="M0 0H24V24H0z"/></clipPath></defs></svg>
